!!!!SEGMENT: pl-kk--kk-i-109--001-001_pekiel-bartlomiej--missa-paschalis-kyrie.krn
!!!cenid: 16xx:1113
!!!COM: Pękiel, Bartłomiej
!!!COM-rismID: pe30105642
!!!CDT: <1633-~1670
!!!CNT: Polish
!!!OPR: Missa Paschalis
!!!OTL: Kyrie
!!!OMV: 001
!!!PDT:
!!!AGN: Sacred; Mass
!!!YEC: Copyright 2022 Narodowy Instytut Fryderyka Chopina (https://polishscores.org)
!!!YEM: License CC-BY-4.0 (https://creativecommons.org/licenses/by/4.0)
!!!SMS-siglum: PL-Kk
!!!SMS-shelfmark: Kk.I.109
!!!SMS-shelfwork: 001-001 M
!!!SMS-variant:
!!!SMS-altvar:
!!!NIFC-rismSourceID: 1001145405
!!!NIFC-rismChildID: 1001145405
!!!NIFC-islandoraID: pl-kk:3341
!!!URL-pdf-islandora: https://repozytorium.nifc.pl/islandora/object/pl-kk%3A3341/datastream/PDF/view
!!!URL-scan: https://polish.musicsources.pl/pl/lokalizacje/galeria/rekopisy/5744 @EN{Scan on Polish Music Sources Website} @PL{Skany w portalu Dziedzictwo Muzyki Polskiej w otwartym dostępie}
!!!IIIF:
!!!ONB-nifc: UWAGA: części Mszy: 1. Kyrie, 2. Et in terra, 3. Patrem, 4. Sanctus, 5. Agnus Dei
!!!AIN: 1 alto 1 bass 1 organ 2 tenor
!!!key: d:dor
**kern	**fba	**text	**kern	**text	**kern	**text	**kern	**text	**kern	**text
*part5	*part5	*part5	*part4	*part4	*part3	*part3	*part2	*part2	*part1	*part1
*staff5	*staff5	*staff5	*staff4	*staff4	*staff3	*staff3	*staff2	*staff2	*staff1	*staff1
*I"[Basso pro organo]	*	*	*I"Baſso.	*	*I"Tenore 2°	*	*I"Tenor 1°	*	*I"Alto.	*
*	*	*	*mI"Basso	*	*mI"Tenore II	*	*mI"Tenore I	*	*mI"Alto	*
*I'[bc]	*	*	*I'B	*	*I'T 2	*	*I'T 1	*	*I'A	*
*Iorgan	*	*	*Ibass	*	*Itenor	*	*Itenor	*	*Ialto	*
*ICklav	*	*	*ICvox	*	*ICvox	*	*ICvox	*	*ICvox	*
*IGcont	*	*	*	*	*	*	*	*	*	*
*clefF4	*	*	*clefF4	*	*clefC4	*	*clefC4	*	*clefC3	*
*	*	*	*	*	*mclefGv2	*	*mclefGv2	*	*mclefG2	*
*k[]	*	*	*k[]	*	*k[]	*	*k[]	*	*k[]	*
*d:dor	*	*	*d:dor	*	*d:dor	*	*d:dor	*	*d:dor	*
*M4/4	*	*	*M4/4	*	*M4/4	*	*M4/4	*	*M4/4	*
*met(C)	*	*	*met(C)	*	*met(C)	*	*met(C)	*	*met(C)	*
*mmet(c)	*	*	*mmet(c)	*	*mmet(c)	*	*mmet(c)	*	*mmet(c)	*
=1-	=1-	=1-	=1-	=1-	=1-	=1-	=1-	=1-	=1-	=1-
!	!	!	!	!	!LO:MO:null:mod=*null	!	!LO:MO:null:mod=*null	!	!	!
*	*	*	*	*	*all\right	*	*all\right	*	*	*
!!LO:TX:t=P:problem=oddech/cezura na różnych wysokościach
!!LO:TX:t=P:problem=wprowadzono wszystkie dopiski zapisane inną ręką (konsultacja E.Z.)
!LO:TX:i:mod= :t=Missa a 4. De Resurectione D(omi)ni. Di Sign B.P.	!	!	!LO:TX:i:mod= :t=Missa a 4. De Resurectione D(omi)ni.	!	!LO:TX:a:mod= :t=a 4.	!	!LO:TX:a:mod= :t=a 4.	!	!LO:TX:a:mod= :t=a 4.	!
2D/	3-	Ky-	4.D/	Ky-	0r	.	4.d\	Ky-	4.f\	Ky-
.	.	.	8D/	-ri-	.	.	8d\	-ri-	8f\	-ri-
*2\right	*	*	*	*	*	*	*	*	*	*
!LO:TX:t=P:problem=kreska pseudotaktowa	!	!	!LO:TX:t=P:problem=kreska pseudotaktowa	!	!	!	!	!LO:MO:null:mod=-[e]	!	!
2A\	-	-ri-	2A\	-e	.	.	8c\L	.	8e\L	-e
.	.	.	.	.	.	.	8B\	.	8d\	.
.	.	.	.	.	.	.	8c\	.	8e\	.
!	!	!	!	!	!	!	!LO:TX:t=P:problem=kreska pseudotaktowa	!	!LO:TX:t=P:problem=kreska pseudotaktowa	!
.	.	.	.	.	.	.	8d\J	.	8f\J	.
=2-	=2-	=2-	=2-	=2-	=2-	=2-	=2-	=2-	=2-	=2-
*	*	*	*	*	*	*	*	*	*2\right	*
!	!	!	!	!LO:MO:null:mod=e-	!	!	!	!	!	!
2E\	-	-e	2E\	.	.	.	4.en\	.	[2g\	.
!	!	!	!	!	!	!	!	!LO:MO:mod=.	!	!
.	.	.	.	.	.	.	16d\LL	-e	.	.
.	.	.	.	.	.	.	16c\JJ	.	.	.
!LO:TX:t=P:problem=kreska pseudotaktowa	!	!	!LO:TX:t=P:problem=kreska pseudotaktowa	!	!	!	!	!	!	!
2G\	n	e-	2G\	.	.	.	8Bn\L	.	8g\L]	.
.	.	.	.	.	.	.	8A\	.	16f\L	.
.	.	.	.	.	.	.	.	.	16e\J	.
.	.	.	.	.	.	.	8B\	.	8d\	.
!	!	!	!	!	!	!	!LO:TX:t=P:problem=kreska pseudotaktowa	!	!LO:TX:t=P:problem=kreska pseudotaktowa	!
.	.	.	.	.	.	.	8c\J	.	8e\J	.
=3-	=3-	=3-	=3-	=3-	=3-	=3-	=3-	=3-	=3-	=3-
*	*	*	*	*	*	*	*2\right	*	*	*
!	!	!	!	!LO:MO:mod=-lei-	!LO:TX:t=P:problem=kreska pseudotaktowa	!	!	!LO:MO:mod=e-	!	!
2F\	6	-le[i]-	2F\	e-	1r	.	2.d\	[e-	8f\L	e-
.	.	.	.	.	.	.	.	.	8g\	.
.	.	.	.	.	.	.	.	.	8a\	.
.	.	.	.	.	.	.	.	.	8f\J	.
!LO:TX:t=P:problem=kreska pseudotaktowa	!	!	!LO:TX:t=P:problem=kreska pseudotaktowa	!LO:MO:mod=.	!	!	!	!	!LO:TX:t=P:problem=kreska pseudotaktowa	!
2E\	7	.	2E\	-lei-	.	.	.	.	2g\	-lei-
!	!	!	!	!	!	!	!LO:TX:t=P:problem=kreska pseudotaktowa	!	!	!
!	!	!	!	!	!	!	!LO:TX:t=P:problem=# above	!LO:MO:mod=-[lei]-	!	!
.	6\	.	.	.	.	.	4c#X\	-lei]	.	.
=4-	=4-	=4-	=4-	=4-	=4-	=4-	=4-	=4-	=4-	=4-
4.D,</	#	-son	4D,</	-son	4.A/	Ky-	2d\	son	4f#X,	-son
*	*	*ij	*	*ij	*	*	*	*	*	*
.	.	.	8.D/	Ky-	.	.	.	.	8f#\	Ky-
8C/L	.	Ky-	.	.	8A/	-ri-	.	.	8e\	-ri-
.	.	.	16C/	-ri-	.	.	.	.	.	.
*	*	*	*	*	*2\right	*	*	*	*	*
!	!	!	!	!	!LO:TX:t=P:problem=kreska pseudotaktowa	!	!	!	!	!
!	!	!	!	!	!	!	!LO:TX:t=P:problem=kreska pseudotaktowa	!	!	!
8BB/	.	.	8BB/L	-e	2Bn\	-e	2r	.	8d\L	-e
8AA/J	.	.	8AA/J	.	.	.	.	.	16e\L	.
!	!	!	!	!	!	!	!	!	!LO:SIC:v:o=16fny\JJ	!
.	.	.	.	.	.	.	.	.	16f#iJJ	.
!LO:TX:t=P:problem=kreska pseudotaktowa	!	!	!LO:TX:t=P:problem=kreska pseudotaktowa	!	!	!	!	!	!	!
4GG/	.	-ri-	4GG/	.	.	.	.	.	8g\L	e-
!	!	!	!	!	!	!	!	!	!LO:SIC:v:o=8f\J	!
!	!	!	!	!	!	!	!	!	!LO:TX:t=P:problem=kreska pseudotaktowa	!
.	.	.	.	.	.	.	.	.	8f#J	.
=5-	=5-	=5-	=5-	=5-	=5-	=5-	=5-	=5-	=5-	=5-
!	!	!	!	!	!	!	!	!	!LO:TX:t=P:problem=kreska pseudotaktowa	!
*	*	*	*	*	*	*	*	*ij	*	*
8AA/L	.	-e	8AA/L	e-	2c\	e-	4.A/	Ky-	1e\	-lei-
8BB/	.	.	8BB/	.	.	.	.	.	.	.
8C/	.	.	8C/	.	.	.	.	.	.	.
8AA/J	.	.	8AA/J	.	.	.	8A/	-ri-	.	.
!	!	!	!	!	!LO:TX:t=P:problem=kreska pseudotaktowa	!	!LO:TX:t=P:problem=kreska pseudotaktowa	!	!	!
8E\L	n_	e-	8E\L	.	2B\	.	2Bn\	-e	.	.
8F\	.	.	8F\	.	.	.	.	.	.	.
8G\	X	.	8G\	.	.	.	.	.	.	.
!LO:TX:t=P:problem=kreska pseudotaktowa	!	!	!LO:TX:t=P:problem=kreska pseudotaktowa	!	!	!	!	!	!	!
8E\J	.	.	8E\J	.	.	.	.	.	.	.
=6-	=6-	=6-	=6-	=6-	=6-	=6-	=6-	=6-	=6-	=6-
!	!	!	!	!	!	!LO:MO:mod=-lei-	!	!LO:MO:mod=e-	!	!
4A\	.	.	4A\	.	2.A/	-le-	2cny\	[e-	4e\	-son
4C/	6	.	4C/	.	.	.	.	.	4e\	e-
!	!	!LO:MO:mod=-lei-	!	!	!	!	!	!LO:MO:mod=-lei-	!	!
4D/	6- 5	-le[i]-	4D/	-lei-	.	.	2B\	-lei]-	4fny\	-lei-
!LO:TX:t=P:problem=kreska pseudotaktowa	!	!	!LO:TX:t=P:problem=kreska pseudotaktowa	!	!LO:TX:t=P:problem=kreska pseudotaktowa	!LO:MO:mod=.	!	!	!	!
4E\	#	.	4E\	.	4G#X/	-i-	.	.	4e\	.
=7-	=7-	=7-	=7-	=7-	=7-	=7-	=7-	=7-	=7-	=7-
!	!	!	!	!	!	!	!LO:TX:t=P:problem=kreska pseudotaktowa	!	!	!
!	!	!	!	!	!	!	!LO:TX:t=P:problem=# above	!	!LO:TX:t=P:problem=kreska pseudotaktowa	!
4AA/	#	-son	4AA/	-son	1A\,<	-ſon	1c#X\	-son	1e\	-son
*	*	*Xij	*	*Xij	*	*	*	*	*	*
2A\	.	Ky-	2A\	Ky-	.	.	.	.	.	.
!LO:TX:t=P:problem=kreska pseudotaktowa	!	!	!LO:TX:t=P:problem=kreska pseudotaktowa	!	!	!	!	!	!	!
4G\	6	-ri-	4G\	-ri-	.	.	.	.	.	.
=8-	=8-	=8-	=8-	=8-	=8-	=8-	=8-	=8-	=8-	=8-
*	*	*	*	*	*	*ij	*	*	*	*
8F#X\L	6	-e	8F#X\L	-e	2d\	Ky-	4.A/	Ky-	2r	.
8D\	.	.	8D\	.	.	.	.	.	.	.
8E\	.	.	8E\	.	.	.	.	.	.	.
8F#\J	.	.	8F#\J	.	.	.	8A/	-ri-	.	.
!	!	!	!	!	!LO:TX:t=P:problem=kreska pseudotaktowa	!	!	!	!	!
4G\	.	.	4G\	.	2B\	-ri-	2.G/	-e	4.g\	Ky-
!LO:TX:t=P:problem=kreska pseudotaktowa	!	!	!LO:TX:t=P:problem=kreska pseudotaktowa	!	!	!	!	!	!	!
4GG/	.	.	4GG/	e-	.	.	.	.	.	.
!	!	!	!	!	!	!	!	!	!LO:TX:t=P:problem=kreska pseudotaktowa	!
.	.	.	.	.	.	.	.	.	8g\	-ri-
=9-	=9-	=9-	=9-	=9-	=9-	=9-	=9-	=9-	=9-	=9-
2C/	.	.	2C/	-lei-	2c\	-e	.	.	2e\	-e
!	!	!	!	!	!	!	!	!LO:MO:mod=e-	!	!
.	.	.	.	.	.	.	4.cny\	[e-	.	.
*custos:FF	*	*	*	*	*	*	*	*	*	*
!LO:LB:g=original	!	!	!	!	!LO:TX:t=P:problem=kreska pseudotaktowa	!	!	!	!	!LO:MO:null:mod=e-
8FF/L	.	.	8FF/L	-ſon	2A/	e-	.	.	2f\	.
*	*	*	*	*	*	*	*custos:B	*	*	*
!	!	!	!	!LO:MO:mod=.	!	!	!LO:LB:g=original	!	!	!
8GG/	.	.	8GG/	e-	.	.	8B-X\L	.	.	.
8AA/	.	.	8AA/	.	.	.	8c\	.	.	.
!LO:TX:t=P:problem=kreska pseudotaktowa	!	!	!LO:TX:t=P:problem=♭ above	!	!	!	!LO:TX:t=P:problem=kreska pseudotaktowa	!	!	!
8BB-X/J	.	.	8BB-X/J	.	.	.	8d\J	.	.	.
*	*	*	*custos:C	*	*	*	*	*	*custos:e	*
!	!	!	!LO:LB:g=original	!	!	!	!	!	!LO:LB:g=original	!
=10-	=10-	=10-	=10-	=10-	=10-	=10-	=10-	=10-	=10-	=10-
*	*	*	*	*	*	*	*	*	*2\left	*
!	!	!	!	!LO:MO:null:mod=e-	!	!LO:MO:mod=-lei-	!	!	!	!LO:MO:mod=-lei-
8C/L	.	e-	8C\L	.	2Gny/	-le-	8e\L	.	2e\	e-
8D/	.	.	8D\	.	.	.	8d\	.	.	.
8E/	.	.	8E\	.	.	.	8c\	.	.	.
!	!	!	!	!	!	!	!LO:SIC:v:o=8Bny\J	!	!	!
8C/J	.	.	8C\J	.	.	.	8B-iJ	.	.	.
!LO:TX:t=P:problem=kreska pseudotaktowa	!	!	!LO:TX:t=P:problem=kreska pseudotaktowa	!	!	!LO:MO:mod=.	!	!LO:MO:mod=-lei-	!LO:TX:t=P:problem=kreska pseudotaktowa	!LO:MO:mod=.
2D/	.	-lei-	2D/	-lei-	2F/	-i-	8A/L	-lei]-	2d\	-lei-
.	.	.	.	.	.	.	8G/J	.	.	.
!	!	!	!	!	!	!	!LO:TX:t=P:problem=kreska pseudotaktowa	!	!	!
.	.	.	.	.	.	.	4A/	.	.	.
=11-	=11-	=11-	=11-	=11-	=11-	=11-	=11-	=11-	=11-	=11-
!LO:TX:t=P:problem=kreska pseudotaktowa	!	!	!	!	!LO:TX:t=P:problem=kreska pseudotaktowa	!	!	!	!	!
1AA/	#	-son	1AA/	-son	1E/	-ſon	4A/	-son	4c#X/	-son
.	.	.	.	.	.	.	8.A/	Ky-	8c#/	Ky-
.	.	.	.	.	.	.	.	.	8d\	-ri-
.	.	.	.	.	.	.	16B\	-ri-	.	.
!	!	!	!	!	!	!	!LO:TX:t=P:problem=# above	!	!	!
.	.	.	.	.	.	.	8c#X\L	-e	8e\L	-e
*	*	*	*	*ij	*	*Xij	*	*Xij	*	*
!	!	!	!	!	!	!	!	!	!LO:TX:t=P:problem=# above	!
.	.	.	.	.	.	.	8A\	.	8c#X\	.
.	.	.	.	.	.	.	8B\	.	8d\	.
!	!	!	!	!	!	!	!LO:TX:t=P:problem=kreska pseudotaktowa	!	!LO:TX:t=P:problem=kreska pseudotaktowa	!
.	.	.	.	.	.	.	8c#\J	.	8e\J	.
=12-	=12-	=12-	=12-	=12-	=12-	=12-	=12-	=12-	=12-	=12-
2D/	-	Ky-	4.D/	Ky-	2r	.	8d\L	.	2f\	.
.	.	.	.	.	.	.	8A\J	.	.	.
.	.	.	.	.	.	.	4.d\	.	.	.
.	.	.	8D/	-ri-	.	.	.	.	.	.
!LO:TX:t=P:problem=kreska pseudotaktowa	!	!	!LO:TX:t=P:problem=kreska pseudotaktowa	!	!	!	!	!	!	!
2A\	4	-ri-	2A\	-e	4.A/	Ky-	.	.	[2e\	.
.	3	.	.	.	.	.	16cny\LL	.	.	.
.	.	.	.	.	.	.	16B\JJ	.	.	.
!	!	!	!	!	!	!	!LO:TX:t=P:problem=kreska pseudotaktowa	!	!	!
.	.	.	.	.	.	.	4c\	.	.	.
!	!	!	!	!	!LO:TX:t=P:problem=kreska pseudotaktowa	!	!	!	!	!
.	.	.	.	.	8A/	-ri-	.	.	.	.
=13-	=13-	=13-	=13-	=13-	=13-	=13-	=13-	=13-	=13-	=13-
2E\	.	-e	2E\	e-	2e\	-e	8G/L	.	8e\L]	.
.	.	.	.	.	.	.	8A/J	.	8f\J	.
.	.	.	.	.	.	.	4.B\	.	2g\	.
*	*	*	*	*	*custos:A	*	*	*	*	*
!LO:TX:t=P:problem=kreska pseudotaktowa	!	!	!LO:TX:t=P:problem=kreska pseudotaktowa	!	!LO:TX:t=P:problem=kreska pseudotaktowa	!	!	!	!	!
!	!	!	!	!	!LO:LB:g=original	!	!	!	!	!
2G\	n	.	2G\	.	2B\	e-	.	.	.	.
.	.	.	.	.	.	.	8c\L	.	.	.
!	!	!	!	!	!	!	!	!	!LO:TX:t=P:problem=kreska pseudotaktowa	!
.	.	.	.	.	.	.	8d\	.	4G/	e-
!	!	!	!	!	!	!	!LO:TX:t=P:problem=kreska pseudotaktowa	!	!	!
.	.	.	.	.	.	.	8e\J	.	.	.
=14-	=14-	=14-	=14-	=14-	=14-	=14-	=14-	=14-	=14-	=14-
!	!	!	!	!	!	!LO:MO:mod=.	!	!	!	!
2Fny\	.	e-	2Fny\	-lei-	2.d\	e-	8f\L	.	4.A/	-lei-
.	.	.	.	.	.	.	8e\J	.	.	.
.	.	.	.	.	.	.	4d\	.	.	.
.	.	.	.	.	.	.	.	.	8A/	-son
*	*	*	*	*	*	*	*	*	*	*ij
!	!	!	!	!	!	!	!LO:TX:t=P:problem=kreska pseudotaktowa	!	!	!
4E\	#	-lei-	4E\	.	.	.	2e\	.	4G#X/	e-
!LO:TX:t=P:problem=kreska pseudotaktowa	!	!	!LO:TX:t=P:problem=kreska pseudotaktowa	!	!LO:TX:t=P:problem=kreska pseudotaktowa	!	!	!	!LO:TX:t=P:problem=kreska pseudotaktowa	!
4AA/	.	.	4AA/	.	4c\	.	.	.	4A/	.
=15-	=15-	=15-	=15-	=15-	=15-	=15-	=15-	=15-	=15-	=15-
!	!	!	!LO:TX:t=P:problem=kreska pseudotaktowa	!	!	!	!	!	!	!
1EE/	5	.	1E\	.	4B\	.	2.E/	e-	4B/	-lei-
!	!	!	!	!	!	!LO:MO:null:mod=-[lei-	!	!	!	!
.	6	.	.	.	2A/	.	.	.	4cny/	.
!	!	!	!	!	!	!	!	!	!LO:TX:t=P:problem=kreska pseudotaktowa	!
.	5	.	.	.	.	.	.	.	2B/	.
!	!	!	!	!	!LO:TX:t=P:problem=kreska pseudotaktowa	!	!LO:MO:mod=[4e	!LO:MO:mod=-lei-	!	!
.	.	.	.	.	4G#X/	.	4.e\	-ley-	.	.
=16-	=16-	=16-	=16-	=16-	=16-	=16-	=16-	=16-	=16-	=16-
!	!	!	!	!	!	!LO:MO:null:mod=-son	!LO:MO:null:mod=8eL]	!	!	!
4AA,</	-	-son	4AA,</	-son	2.A/	.	.	.	8c/L	-son
!	!	!	!	!	!	!	!LO:SIC:o=8d\L	!	!	!
.	.	.	.	.	.	.	8d	.	8B/J	.
*	*	*ij	*	*	*	*	*	*	*	*
!	!	!	!	!	!	!	!LO:SIC:o=8c\J	!	!	!
8A\L	.	Ky-	8A\	Ky-	.	.	8c	.	2A/	.
*	*	*	*	*	*	*	*custos:B	*	*	*
!	!	!	!	!	!	!	!LO:SIC:o=8B\	!	!	!
!	!	!	!	!	!	!	!LO:LB:g=original	!	!	!
8G\	.	-ri-	8G\	-ri-	.	.	8BJ	.	.	.
8F\	.	-e	8F\L	-e	.	.	4A/	.	.	.
8E\J	.	.	8E\J	.	.	.	.	.	.	.
!LO:TX:t=P:problem=kreska pseudotaktowa	!	!	!LO:TX:t=P:problem=kreska pseudotaktowa	!	!	!LO:MO:mod=e]-	!LO:TX:t=P:problem=przekreślona synkopowana wartość	!	!LO:TX:t=P:problem=kreska pseudotaktowa	!
4D/	.	e-	4D/	e-	4f\	-le-	2d\	.	4a\	e-
=17-	=17-	=17-	=17-	=17-	=17-	=17-	=17-	=17-	=17-	=17-
!	!LO:MO:mod=7 #	!	!	!	!LO:TX:t=P:problem=kreska pseudotaktowa	!LO:MO:mod=-lei-	!	!	!	!
1E\	#	-lei-	1E\	-lei-	1e\	-i-	.	.	8g#X\L	.
.	.	.	.	.	.	.	.	.	8e\J	.
*	*	*	*	*	*	*	*	*	*2\right	*
!	!LO:MO:mod=6 4	!	!	!	!	!	!	!	!	!
.	4	.	.	.	.	.	4c\	.	2a\	-lei-
!	!	!	!	!	!	!	!LO:TX:t=P:problem=kreska pseudotaktowa	!	!	!
.	.	.	.	.	.	.	2B\	.	.	.
!	!	!	!	!	!	!	!	!	!LO:TX:t=P:problem=# above	!
.	#	.	.	.	.	.	.	.	4g#X\	.
!	!	!	!LO:TX:t=P:problem=kreska pseudotaktowa	!	!LO:TX:t=P:problem=kreska pseudotaktowa	!	!LO:TX:t=P:problem=kreska pseudotaktowa	!	!LO:TX:t=P:problem=kreska pseudotaktowa	!
=18-	=18-	=18-	=18-	=18-	=18-	=18-	=18-	=18-	=18-	=18-
1AA/,<	#	-son	1AA/	-son	1e\	-ſon	1c#X\	-son	1a\	-son
*	*	*Xij	*	*Xij	*	*	*	*	*	*Xij
=19-	=19-	=19-	=19-	=19-	=19-	=19-	=19-	=19-	=19-	=19-
!LO:MO:null:mod=*null	!	!	!	!	!	!	!	!	!	!
*clefC4	*	*	*	*	*	*	*	*	*	*
!	!	!	!LO:TX:a:mod= :t=4.	!	!	!	!	!	!	!
!	!	!	!LO:N:vis=00	!	!	!	!	!	!	!
!	!	!	!LO:TX:t=P:problem=kreska pseudotaktowa	!	!	!	!	!	!	!
2A/	.	.	0.r	.	1r	.	4r	.	4r	.
.	.	.	.	.	.	.	4A/	Chri-	4a\	Chri-
4B\	6	.	.	.	.	.	4B\	-ste	4gny\	-ste
!	!	!	!	!	!	!	!LO:TX:t=P:problem=kreska pseudotaktowa	!	!	!
!	!	!	!	!	!	!	!LO:TX:t=P:problem=# above	!LO:MO:null:mod=e-	!LO:TX:t=P:problem=kreska pseudotaktowa	!
4c#X\	.	.	.	.	.	.	4c#X\	.	4e\	e-
!LO:MO:null:mod=*null	!	!	!	!	!	!	!	!	!	!
*clefF4	*	*	*	*	*	*	*	*	*	*
=20-	=20-	=20-	=20-	=20-	=20-	=20-	=20-	=20-	=20-	=20-
!LO:TX:t=P:problem=metrum C	!	!	!	!	!	!	!	!LO:MO:mod=-lei-	!	!LO:MO:null:mod=-lei-
2D/	-	.	.	.	2D/	Chri-	8d\L	e-	2f\	.
.	.	.	.	.	.	.	8cny\	.	.	.
.	.	.	.	.	.	.	8A\	.	.	.
.	.	.	.	.	.	.	8B\J	.	.	.
*	*	*	*	*	*	*	*	*	*custos:e	*
!	!	!	!	!	!	!	!	!	!LO:LB:g=original	!
!	!	!	!	!	!LO:TX:t=P:problem=kreska pseudotaktowa	!LO:MO:mod=.	!	!LO:MO:mod=.	!	!LO:MO:mod=.
2A\	.	.	.	.	2A/	-ſte	8c\L	-ley-	8e\L	-lei-
.	.	.	.	.	.	.	8B\	.	8d\	.
.	.	.	.	.	.	.	8c\	.	8e\	.
!	!	!	!	!	!	!	!LO:TX:t=P:problem=kreska pseudotaktowa	!	!LO:TX:t=P:problem=kreska pseudotaktowa	!
.	.	.	.	.	.	.	8d\J	.	8f\J	.
*custos:E	*	*	*	*	*	*	*	*	*	*
!LO:LB:g=original	!	!	!	!	!	!	!	!	!	!
=21-	=21-	=21-	=21-	=21-	=21-	=21-	=21-	=21-	=21-	=21-
!	!	!	!	!	!	!LO:MO:mod=-ste	!	!	!	!
2E\	-	.	.	.	2E/	e-	4.e\	.	4.g\	.
.	.	.	.	.	.	.	16d\LL	.	16f\LL	.
.	.	.	.	.	.	.	16c\JJ	.	16e\JJ	.
!LO:TX:t=P:problem=kreska pseudotaktowa	!	!	!	!	!LO:TX:t=P:problem=kreska pseudotaktowa	!LO:MO:null:mod=e-	!	!	!	!
2G\	n	.	.	.	2Gny/	.	8Bn\L	.	8d\L	.
.	.	.	.	.	.	.	8A\	.	8c\	.
.	.	.	.	.	.	.	8B\	.	8d\	.
!	!	!	!	!	!	!	!LO:TX:t=P:problem=kreska pseudotaktowa	!	!LO:TX:t=P:problem=kreska pseudotaktowa	!
.	.	.	.	.	.	.	8c\J	.	8e\J	.
=22-	=22-	=22-	=22-	=22-	=22-	=22-	=22-	=22-	=22-	=22-
!	!	!LO:MO:mod=Chri-	!	!	!	!LO:MO:mod=-lei-	!	!LO:MO:null:mod=[-son	!	!
2F\	.	X-	4r	.	2F/	-le-	2d\	.	4f\	-son
!	!	!	!LO:TX:t=P:problem=inną ręką wykreślone nuty	!	!	!	!	!	!	!
*	*	*	*	*	*	*	*	*	*	*ij
.	.	.	4A\	Chri-	.	.	.	.	4a\	Chri-
!LO:TX:t=P:problem=kreska pseudotaktowa	!	!LO:MO:mod=-ste	!	!	!LO:TX:t=P:problem=kreska pseudotaktowa	!LO:MO:mod=.	!LO:TX:t=P:problem=kreska pseudotaktowa	!LO:MO:null:mod=Chri-	!	!
2E\	-	-te	4B\	-ſte	2E/	-i-	2e\	.	4g\	-ste
!	!	!	!LO:TX:t=P:problem=kreska pseudotaktowa	!	!	!	!	!	!LO:TX:t=P:problem=kreska pseudotaktowa	!
.	.	.	4c#X\	e-	.	.	.	.	4e\	e-
=23-	=23-	=23-	=23-	=23-	=23-	=23-	=23-	=23-	=23-	=23-
!	!	!	!LO:TX:t=P:problem=inną ręką wykreślona nuta	!	!	!	!	!	!	!
!	!	!	!LO:TX:t=P:problem=mixed beam	!	!	!	!	!LO:MO:null:mod=-ste	!	!
2D/	-	e-	8d\L	.	2D/	-ſon	4.A\	.	2f\	-lei-
.	.	.	8D|/	.	.	.	.	.	.	.
.	.	.	8F|/	.	.	.	.	.	.	.
.	.	.	8G|/J	.	.	.	8B\	.	.	.
!	!	!	!	!	!LO:TX:t=P:problem=kreska pseudotaktowa	!	!LO:TX:t=P:problem=kreska pseudotaktowa	!	!	!
4A\	.	.	4A\	.	2r	.	2c\	.	8e\L	.
.	.	.	.	.	.	.	.	.	8d\	.
!LO:TX:t=P:problem=kreska pseudotaktowa	!	!	!LO:TX:t=P:problem=kreska pseudotaktowa	!	!	!	!	!	!	!
4AA/	-	.	4AA/	.	.	.	.	.	8e\	.
!	!	!	!	!	!	!	!	!	!LO:TX:t=P:problem=kreska pseudotaktowa	!
!	!	!	!	!	!	!	!	!	!LO:TX:t=P:problem=# above	!
.	.	.	.	.	.	.	.	.	8f#X\J	.
=24-	=24-	=24-	=24-	=24-	=24-	=24-	=24-	=24-	=24-	=24-
*	*	*	*	*	*	*ij	*	*	*	*
2E\	-	.	2E\	.	2E/	Chri-	8B\L	.	2g\	.
.	.	.	.	.	.	.	8A\	.	.	.
.	.	.	.	.	.	.	8B\	.	.	.
.	.	.	.	.	.	.	8c\J	.	.	.
*	*	*	*	*	*	*	*custos:d	*	*	*
!LO:TX:t=P:problem=kreska pseudotaktowa	!	!	!LO:TX:t=P:problem=kreska pseudotaktowa	!	!LO:TX:t=P:problem=kreska pseudotaktowa	!	!LO:LB:g=original	!	!LO:MO:mod=[2f#	!
2BBny/	#	.	2BBny/	.	2B\	-ste	2.d\	.	1f#X\	.
=25-	=25-	=25-	=25-	=25-	=25-	=25-	=25-	=25-	=25-	=25-
!	!	!	!	!	!	!	!	!	!LO:MO:null:mod=2f#]	!
2D/	#	.	2D/	.	8F#X/L	e-	.	.	.	.
.	.	.	.	.	8E/	.	.	.	.	.
!	!	!	!	!	!	!	!	!LO:MO:null:mod=e-	!	!
.	.	.	.	.	8F#/	.	8A\L	.	.	.
.	.	.	.	.	8G/J	.	8B\J	.	.	.
*	*	*	*	*	*custos:A	*	*	*	*	*
!LO:TX:t=P:problem=kreska pseudotaktowa	!	!	!LO:TX:t=P:problem=kreska pseudotaktowa	!	!LO:LB:g=original	!	!	!LO:MO:null:mod=-lei]-	!LO:TX:t=P:problem=kreska pseudotaktowa	!
2C/	6	.	2C/	.	8A/L	.	4.c\	.	2e\	.
.	.	.	.	.	8E/J	.	.	.	.	.
!	!	!	!	!	!	!LO:MO:mod=-lei-	!	!	!	!
.	.	.	.	.	2A/	-le-	.	.	.	.
.	.	.	.	.	.	.	16B\LL	.	.	.
!	!	!	!	!	!	!	!LO:TX:t=P:problem=kreska pseudotaktowa	!	!	!
.	.	.	.	.	.	.	16A\JJ	.	.	.
=26-	=26-	=26-	=26-	=26-	=26-	=26-	=26-	=26-	=26-	=26-
2BB/	7	-lei-	2BB/	-lei-	.	.	2B\	.	2d\	.
!	!	!	!	!	!	!LO:MO:mod=.	!	!	!	!
.	6|	.	.	.	4G#X/	-i-	.	.	.	.
!	!	!	!LO:TX:t=P:problem=kreska pseudotaktowa	!	!	!	!	!	!	!
!LO:TX:t=P:problem=kreska pseudotaktowa	!	!	!	!	!	!	!	!	!LO:TX:t=P:problem=# below	!
2AA/	#	-son	2AA/	-son	2A/	-ſon	2E/	-son	2c#X/	-son
*	*	*	*custos:A	*	*	*	*	*	*	*
!	!	!	!LO:LB:g=original	!	!	!	!	!	!	!
=27-	=27-	=27-	=27-	=27-	=27-	=27-	=27-	=27-	=27-	=27-
!	!LO:MO:null:mod=*null	!	!	!	!	!	!	!	!	!
*M3/2	*below	*	*M3/2	*	*M3/2	*Xij	*M3/2	*	*M3/2	*Xij
*met(C3/2)	*	*	*	*	*	*	*	*	*	*
!	!	!	!	!	!	!	!LO:TX:t=P:problem=# above	!	!	!
1A\	#	Ky-	1A\	Ky-	1A\	Ky-	1c#X\	Ky-	1e\	Ky-
!	!	!	!	!	!	!	!LO:TX:t=P:problem=kreska pseudotaktowa	!	!	!
!LO:TX:t=P:problem=kreska pseudotaktowa	!LO:MO:null:mod=*null	!	!LO:TX:t=P:problem=kreska pseudotaktowa	!	!LO:TX:t=P:problem=kreska pseudotaktowa	!	!LO:TX:t=P:problem=# above	!	!LO:TX:t=P:problem=kreska pseudotaktowa	!
*	*above	*	*	*	*	*	*	*	*	*
!	!	!	!	!	!	!	!	!LO:MO:mod=-ri-	!	!
2F#X\	6|	-ri-	2F#X\	-ri-	2A\	-ri-	2d#X\	-ry-	2f#X\	-ri-
=28-	=28-	=28-	=28-	=28-	=28-	=28-	=28-	=28-	=28-	=28-
!	!	!	!	!	!LO:TX:t=P:problem=kreska pseudotaktowa	!	!	!	!	!
1E\	-	-e	1E\	-e	1.B\	-e	1e\	-e	1g\	-e
!LO:TX:t=P:problem=kreska pseudotaktowa	!	!	!LO:TX:t=P:problem=kreska pseudotaktowa	!LO:MO:null:mod=e-	!	!	!LO:TX:t=P:problem=kreska pseudotaktowa	!LO:MO:null:mod=e-	!LO:TX:t=P:problem=kreska pseudotaktowa	!LO:MO:null:mod=e-
2BB/	#	e-	2BB/	.	.	.	2dny\	.	2f#X\	.
=29-	=29-	=29-	=29-	=29-	=29-	=29-	=29-	=29-	=29-	=29-
!	!	!	!	!LO:MO:mod=-lei-	!	!	!	!LO:MO:mod=-lei-	!	!LO:MO:mod=-lei-
2C/	.	-lei-	2C/	e-	2Gny/	e-	1cny\	e-	1e\	e-
!	!	!	!	!	!	!LO:MO:mod=-lei-	!	!	!	!
2AA/	6 5	.	2AA/	.	2A/	-le-	.	.	.	.
!	!	!	!	!	!	!	!LO:TX:t=P:problem=kreska pseudotaktowa	!	!	!
!LO:TX:t=P:problem=kreska pseudotaktowa	!	!	!LO:TX:t=P:problem=kreska pseudotaktowa	!LO:MO:mod=.	!LO:TX:t=P:problem=kreska pseudotaktowa	!LO:MO:mod=.	!LO:TX:t=P:problem=sylaba -ley- poprawiona na -lei-	!LO:MO:mod=.	!	!LO:MO:mod=.
2BB/	#	.	2BB/	lei-	2F#X/	-i-	2B\	-lei-	2d#X\	-lei-
=30-	=30-	=30-	=30-	=30-	=30-	=30-	=30-	=30-	=30-	=30-
!	!	!	!	!	!LO:TX:t=P:problem=kreska pseudotaktowa	!	!	!	!	!
!LO:TX:t=P:problem=kreska pseudotaktowa	!	!	!LO:TX:t=P:problem=kreska pseudotaktowa	!	!LO:TX:t=P:problem=# above	!	!	!	!LO:TX:t=P:problem=kreska pseudotaktowa	!
1.EE/	#	-son	1.E\	-son	1.G#X/	-son	2B\	-son	1.e\	-son
*	*	*ij	*	*ij	*	*ij	*	*ij	*	*
.	.	.	.	.	.	.	2e\	Ky-	.	.
!	!	!	!	!	!	!	!LO:TX:t=P:problem=kreska pseudotaktowa	!LO:MO:mod=-ri-	!	!
.	.	.	.	.	.	.	2B\	-ry-	.	.
=31-	=31-	=31-	=31-	=31-	=31-	=31-	=31-	=31-	=31-	=31-
!	!	!	!	!	!	!	!LO:TX:t=P:problem=# above	!	!	!
1AA/	#	Ky-	2.AA/	Ky-	1A\	Ky-	1c#X\	-e	2r	.
.	.	.	.	.	.	.	.	.	2a\	Ky-
.	.	.	4AA/	-ri-	.	.	.	.	.	.
!	!	!	!	!	!	!	!	!	!LO:TX:t=P:problem=kreska pseudotaktowa	!
!LO:TX:t=P:problem=kreska pseudotaktowa	!	!	!LO:TX:t=P:problem=kreska pseudotaktowa	!	!LO:TX:t=P:problem=kreska pseudotaktowa	!	!LO:TX:t=P:problem=kreska pseudotaktowa	!	!	!
2D/	.	-ri-	2D/	-e	2A\	-ri-	2d\	e-	2f#X\	-ri-
*	*	*	*	*	*	*	*	*	*custos:g	*
!	!	!	!	!	!	!	!	!	!LO:LB:g=original	!
=32-	=32-	=32-	=32-	=32-	=32-	=32-	=32-	=32-	=32-	=32-
1GG/	.	-e	1GG/	e-	1B\	-e	1d\	-lei-	1g\	-e
!LO:TX:t=P:problem=kreska pseudotaktowa	!	!	!	!	!LO:TX:t=P:problem=przekreślona synkopowana wartość	!	!LO:TX:t=P:problem=kreska pseudotaktowa	!	!LO:TX:t=P:problem=kreska pseudotaktowa	!LO:MO:null:mod=e-
2C/	.	e-	2C/	.	1Gny/	e-	2cny\	.	2e\	.
=33-	=33-	=33-	=33-	=33-	=33-	=33-	=33-	=33-	=33-	=33-
!	!	!	!	!	!	!	!	!	!	!LO:MO:mod=-lei-
2GG/	.	.	2GG/	.	.	.	2B\	.	2d\ny	e-
!	!	!	!	!	!LO:TX:t=P:problem=kreska pseudotaktowa	!	!	!	!	!LO:MO:mod=.
1AA/	.	-lei-	1AA/	-lei-	1E/	-lei-	1A\	.	1cny\	-lei-
*custos:E	*	*	*	*	*	*	*	*	*	*
!LO:LB:g=original	!	!	!	!	!	!	!	!	!	!
=34-	=34-	=34-	=34-	=34-	=34-	=34-	=34-	=34-	=34-	=34-
!	!	!	!	!	!	!	!LO:TX:t=P:problem=kreska pseudotaktowa	!	!	!
!LO:TX:t=P:problem=kreska pseudotaktowa	!	!	!LO:TX:t=P:problem=kreska pseudotaktowa	!	!	!	!LO:TX:t=P:problem=# above	!	!LO:TX:t=P:problem=kreska pseudotaktowa	!
1.E\	#	-son	1.E\	-son	2E,</	-son	1.G#X/	-son	1.B/	-son
*	*	*Xij	*	*Xij	*	*Xij	*	*	*	*
.	.	.	.	.	4.Bn\	Ky-	.	.	.	.
.	.	.	.	.	8E/	-ri-	.	.	.	.
.	.	.	.	.	4e\	-e	.	.	.	.
!	!	!	!	!	!LO:TX:t=P:problem=kreska pseudotaktowa	!	!	!	!	!
.	.	.	.	.	4d\,<	.	.	.	.	.
=35-	=35-	=35-	=35-	=35-	=35-	=35-	=35-	=35-	=35-	=35-
1AA/	.	Ky-	2.AA/	Ky-	4c\	.	2.A/	Ky-	4.A/	Ky-
.	.	.	.	.	4B\	.	.	.	.	.
.	.	.	.	.	.	.	.	.	8A/	-ri-
*	*	*	*	*	*custos:A	*	*	*	*	*
!	!	!	!	!	!LO:LB:g=original	!	!	!	!	!
.	.	.	.	.	2A/	.	.	.	2e\	-e
!	!	!	!	!	!	!	!	!LO:MO:mod=-ri-	!	!
.	.	.	4AA/	-ri-	.	.	4A/	-ry-	.	.
!LO:TX:t=P:problem=kreska pseudotaktowa	!	!	!	!LO:MO:null:mod=-e	!	!LO:MO:null:mod=e-	!	!	!LO:TX:t=P:problem=kreska pseudotaktowa	!LO:MO:null:mod=e-
2E\	.	-ri-	2E\	.	4G/	.	2.B\	-e	2B/	.
!	!	!	!	!	!LO:TX:t=P:problem=kreska pseudotaktowa	!	!	!	!	!
.	.	.	.	.	4A,</	.	.	.	.	.
=36-	=36-	=36-	=36-	=36-	=36-	=36-	=36-	=36-	=36-	=36-
!	!	!	!	!LO:MO:mod=e-	!	!LO:MO:mod=.	!	!	!	!LO:MO:mod=.
1BB/	.	-e	1BB/	-e	2.B\	e-	.	.	2.d\	e-
*	*	*	*	*	*	*	*custos:c	*	*	*
!	!	!	!	!	!	!	!LO:LB:g=original	!	!	!
.	.	.	.	.	.	.	4c\	e-	.	.
.	.	.	.	.	.	.	4d\	.	.	.
.	.	.	.	.	8A/L	.	4e\	.	8c/L	.
.	.	.	.	.	8G/J	.	.	.	8B/J	.
!	!	!	!	!	!	!	!LO:TX:t=P:problem=kreska pseudotaktowa	!	!	!
!LO:TX:t=P:problem=kreska pseudotaktowa	!	!	!LO:TX:t=P:problem=kreska pseudotaktowa	!	!	!	!LO:TX:t=P:problem=# above	!	!	!
2D/	#	.	2D/	.	4F#X/	.	2f#X\	-lei-	4A/	.
!	!	!	!	!	!LO:TX:t=P:problem=kreska pseudotaktowa	!	!	!	!LO:TX:t=P:problem=kreska pseudotaktowa	!
.	.	.	.	.	4G/	.	.	.	4B/	.
=37-	=37-	=37-	=37-	=37-	=37-	=37-	=37-	=37-	=37-	=37-
!	!	!	!	!LO:MO:mod=.	!	!	!	!	!	!
2.C/	.	.	2.C/	e-	2A\	.	2e\	-son	1c\	.
!	!	!	!	!	!LO:TX:t=P:problem=kreska pseudotaktowa	!LO:MO:mod=.	!	!	!	!
.	.	.	.	.	1e\	-le-	2r	.	.	.
4D/	.	.	4D/	.	.	.	.	.	.	.
1E\	.	.	1E\	.	.	.	4.E/	Ky-	4B/	.
!	!	!	!	!	!	!	!	!	!LO:TX:t=P:problem=kreska pseudotaktowa	!
.	.	.	.	.	.	.	.	.	4A/	.
!	!	!	!	!	!	!	!LO:TX:t=P:problem=kreska pseudotaktowa	!LO:MO:mod=-ri-	!	!
.	.	.	.	.	.	.	8E/	-ry-	.	.
=38-	=38-	=38-	=38-	=38-	=38-	=38-	=38-	=38-	=38-	=38-
!	!	!	!	!	!	!LO:MO:mod=.	!	!	!	!
.	.	.	.	.	2B\	-i-	1B\	-e	4Gny/	.
.	.	.	.	.	.	.	.	.	4A/	.
2BB/	.	.	2BB/	.	1d\	.	.	.	4B/	.
.	.	.	.	.	.	.	.	.	4c/	.
!LO:TX:t=P:problem=kreska pseudotaktowa	!	!	!LO:TX:t=P:problem=kreska pseudotaktowa	!	!	!	!	!	!	!
2D/	.	.	2D/	.	.	.	4F#X/	e-	4A/	.
!	!	!	!	!	!	!	!LO:TX:t=P:problem=kreska pseudotaktowa	!	!LO:TX:t=P:problem=kreska pseudotaktowa	!
.	.	.	.	.	.	.	4Gny/	.	4B/	.
=39-	=39-	=39-	=39-	=39-	=39-	=39-	=39-	=39-	=39-	=39-
4AA/	.	.	4AA/	.	1c\	.	1A\	.	4c\	.
4BB/	.	.	4BB/	.	.	.	.	.	4d\	.
!	!	!	!	!	!	!	!	!	!LO:TX:t=P:problem=kreska pseudotaktowa	!
4C/	.	.	4C/	.	.	.	.	.	1e\	.
4D/	.	.	4D/	.	.	.	.	.	.	.
!LO:TX:t=P:problem=kreska pseudotaktowa	!	!	!	!	!	!	!LO:TX:t=P:problem=kreska pseudotaktowa	!	!	!
2E\	#	e-	2E\	.	2B/	.	2G#X/	.	.	.
=40-	=40-	=40-	=40-	=40-	=40-	=40-	=40-	=40-	=40-	=40-
!	!	!	!	!	!	!LO:MO:mod=-lei-	!	!	!	!
2Fny\	.	-lei-	2Fny\	.	1A\	-son	2A/	.	2c/	.
!	!	!	!	!LO:MO:mod=.	!	!	!	!	!	!
2D/	.	.	2D/	-lei-	.	.	2d\	.	2fny\	.
!	!	!	!LO:TX:t=P:problem=kreska pseudotaktowa	!	!	!	!	!	!	!
!	!	!	!	!LO:MO:mod=-lei-	!	!	!LO:TX:t=P:problem=kreska pseudotaktowa	!	!	!
2E\	.	-son	2E\	-son.	2G#X/	.	2B\	-lei-	2e\	-lei-
*	*	*	*custos:AA	*	*	*	*	*	*	*
*	*	*	*custos:A	*	*	*	*	*	*	*
!	!	!	!LO:LB:g=original	!	!	!	!	!	!	!
=41-	=41-	=41-	=41-	=41-	=41-	=41-	=41-	=41-	=41-	=41-
*M4/4	*	*	*M4/4	*	*M4/4	*	*M4/4	*	*M4/4	*
*met(C)	*	*	*met(C)	*	*met(C)	*	*met(C)	*	*met(C)	*
*mmet(c)	*	*	*mmet(c)	*	*mmet(c)	*	*mmet(c)	*	*mmet(c)	*
*	*	*	*	*ij	*	*ij	*	*	*	*
!	!	!	!	!LO:MO:mod=-son	!LO:TX:t=P:problem=brak zmiany metrum	!LO:MO:null:mod=-son	!	!	!	!
4A\	.	Ky-	4A\	Ky-	2A,<\	.	2c\	-son	4e\	-son
!	!	!LO:MO:mod=.	!	!LO:MO:mod=Ky-	!	!	!	!	!	!
4G\	.	-ri-	4G\	-ri-	.	.	.	.	8f\L	e-
.	.	.	.	.	.	.	.	.	8g\J	.
!	!	!LO:MO:mod=-ri-	!	!LO:MO:mod=-ri-	!LO:TX:t=P:problem=kreska pseudotaktowa	!	!	!	!	!
4F\	.	-e	4F\	-e	2c\	Ky-	4.c\	Ky-	4a\	.
!	!	!	!	!	!	!	!	!	!LO:TX:t=P:problem=kreska pseudotaktowa	!
!LO:TX:t=P:problem=kreska pseudotaktowa	!	!	!LO:TX:t=P:problem=kreska pseudotaktowa	!	!	!	!	!	!	!
4E\	.	.	4E\	.	.	.	.	.	4g\	.
!	!	!	!	!	!	!	!LO:TX:t=P:problem=kreska pseudotaktowa	!LO:MO:mod=-ri-	!	!
.	.	.	.	.	.	.	8c\	-ry-	.	.
*	*	*	*	*	*	*	*	*	*custos:f	*
!	!	!	!	!	!	!	!	!	!LO:LB:g=original	!
=42-	=42-	=42-	=42-	=42-	=42-	=42-	=42-	=42-	=42-	=42-
!	!	!LO:MO:null:mod=-e	!	!LO:MO:mod=-e	!	!	!	!	!	!
2D/	.	.	2D/	e-	2A\	-rie	2d\	-e	2f\	.
!LO:TX:t=P:problem=kreska pseudotaktowa	!	!	!LO:TX:t=P:problem=kreska pseudotaktowa	!LO:MO:null:mod=e-	!	!	!	!	!LO:TX:t=P:problem=kreska pseudotaktowa, między nutą a kropką	!
2C#X/	.	e-	2C#X/	.	1A\	e-	2e\	e-	2.e\	.
=43-	=43-	=43-	=43-	=43-	=43-	=43-	=43-	=43-	=43-	=43-
1D\	.	-lei-	1D\	-lei-	.	.	1fny\	-lei-	.	.
.	.	.	.	.	.	.	.	.	8d\L	.
!	!	!	!	!	!	!	!	!	!LO:SIC:v:o=8c\J	!
.	.	.	.	.	.	.	.	.	8c#iJ	.
.	.	.	.	.	2A/	-lei-	.	.	2d\	-lei-
=44-	=44-	=44-	=44-	=44-	=44-	=44-	=44-	=44-	=44-	=44-
!	!	!	!	!	!	!	!	!	!LO:TX:t=P:problem=# below	!
!LO:MO:mod=0AA;	!	!	!LO:MO:mod=0AA;	!LO:MO:mod=-son.	!LO:MO:mod=0A;	!LO:MO:mod=-son.	!LO:MO:mod=0e;	!LO:MO:mod=-son.	!LO:MO:mod=0c#;	!LO:MO:mod=-son.
1AAl/;	#	-son.	1AAl/;	-son	1Al\;;	-son	1ell;;\	-son	1c#Xl\;	-son
*	*	*	*	*Xij	*	*Xij	*	*Xij	*	*
==	==	==	==	==	==	==	==	==	==	==
*-	*-	*-	*-	*-	*-	*-	*-	*-	*-	*-
!!!system-decoration: [vox]<s5>
!!!RDF**kern: < = below
!!LO:MO:ori
!!!RDF**kern: | = vertical stroke
!!!RDF**kern: l = terminal long
!!LO:MO:mod
!! !!!RDF**kern: i = editorial accidental
!!LO:MO:end
!!!filter-modern: shed -e "s/^(\d+[\/\\]right)/$1yy/I; s/^(\d+[\/\\]left)/$1yy/I" | shed -e s/^custos:/Xcustos:/I | shed -e "s/TX(.*):t=P:/tx$1:t=P:/LG" | shed -e "s/LO:N:/LO:n:$1/L" | shed -k -e "s/([^a-gA-Gn#X-])[<>]/$1/g" | sic -sq | modori -m | autostem -r | tie -s | humtr -p | shed -e s/-//B
!!!ENC: Katarzyna Serwa
!!!END: 2021-03-26
!!!EED: Andrzej Borzym
!!!EEV: 2021-04-07
!!!ENC-modern: Andrzej Kubiczek
!!!END-modern: 2023-07-20
!!!YEC: Copyright 2022 Narodowy Instytut Fryderyka Chopina (https://polishscores.org)
!!!YEM: License CC-BY-4.0 (https://creativecommons.org/licenses/by/4.0)
